; generated by Slic3r 1.3.0 on 2020-06-13 at 03:44:46

; external perimeters extrusion width = 0.55mm (6.64mm^3/s)
; perimeters extrusion width = 0.52mm (12.53mm^3/s)
; infill extrusion width = 0.52mm (16.71mm^3/s)
; solid infill extrusion width = 0.52mm (4.18mm^3/s)
; top infill extrusion width = 0.52mm (3.13mm^3/s)

M107
M104 S200 ; set temperature
G28 ; home all axes
G1 Z5 F5000 ; lift nozzle

; Filament gcode

M109 S200 ; set temperature and wait for it to be reached
G21 ; set units to millimeters
G90 ; use absolute coordinates
M82 ; use absolute distances for extrusion
G92 E0
G1 Z0.350 F7800.000
G1 E-2.00000 F2400.00000
G92 E0
G1 X77.168 Y78.139 F7800.000
G1 E2.00000 F2400.00000
G1 F1800
G1 X79.907 Y75.598 E3.04051
G1 X80.681 Y74.980 E3.31624
G1 X83.768 Y72.876 E4.35675
G1 X84.626 Y72.381 E4.63247
G1 X87.992 Y70.759 E5.67300
G1 X88.914 Y70.398 E5.94873
G1 X92.484 Y69.296 E6.98924
G1 X93.514 Y69.066 E7.28311
G1 X97.144 Y68.519 E8.30543
G1 X98.132 Y68.445 E8.58116
G1 X101.868 Y68.445 E9.62167
G1 X102.856 Y68.519 E9.89738
G1 X106.550 Y69.076 E10.93792
G1 X107.516 Y69.296 E11.21364
G1 X111.086 Y70.398 E12.25416
G1 X112.008 Y70.759 E12.52989
G1 X115.374 Y72.381 E13.57040
G1 X116.286 Y72.912 E13.86429
G1 X119.319 Y74.980 E14.88660
G1 X120.093 Y75.598 E15.16233
G1 X122.832 Y78.139 E16.20284
G1 X123.506 Y78.865 E16.47857
G1 X125.836 Y81.786 E17.51908
G1 X126.393 Y82.604 E17.79477
G1 X128.262 Y85.840 E18.83532
G1 X128.691 Y86.733 E19.11105
G1 X130.056 Y90.211 E20.15157
G1 X130.348 Y91.157 E20.42726
G1 X131.180 Y94.800 E21.46781
G1 X131.327 Y95.779 E21.74347
G1 X131.606 Y99.505 E22.78405
G1 X131.606 Y100.495 E23.05978
G1 X131.327 Y104.221 E24.10029
G1 X131.180 Y105.200 E24.37602
G1 X130.348 Y108.843 E25.41653
G1 X130.032 Y109.850 E25.71038
G1 X128.691 Y113.267 E26.73273
G1 X128.262 Y114.160 E27.00846
G1 X126.393 Y117.395 E28.04897
G1 X125.795 Y118.265 E28.34287
G1 X123.506 Y121.135 E29.36517
G1 X122.832 Y121.861 E29.64088
G1 X120.093 Y124.402 E30.68141
G1 X119.319 Y125.020 E30.95714
G1 X116.232 Y127.124 E31.99765
G1 X115.375 Y127.619 E32.27336
G1 X112.008 Y129.241 E33.31389
G1 X111.086 Y129.602 E33.58962
G1 X107.516 Y130.704 E34.63013
G1 X106.550 Y130.924 E34.90586
G1 X102.856 Y131.481 E35.94637
G1 X101.868 Y131.555 E36.22211
G1 X98.132 Y131.555 E37.26262
G1 X97.080 Y131.471 E37.55651
G1 X93.450 Y130.924 E38.57882
G1 X92.484 Y130.704 E38.85451
G1 X88.914 Y129.602 E39.89506
G1 X87.992 Y129.241 E40.17079
G1 X84.626 Y127.619 E41.21130
G1 X83.768 Y127.124 E41.48703
G1 X80.681 Y125.020 E42.52754
G1 X79.907 Y124.402 E42.80327
G1 X77.168 Y121.861 E43.84378
G1 X76.494 Y121.135 E44.11951
G1 X74.164 Y118.214 E45.16002
G1 X73.607 Y117.396 E45.43573
G1 X71.738 Y114.160 E46.47626
G1 X71.309 Y113.267 E46.75200
G1 X69.944 Y109.789 E47.79251
G1 X69.652 Y108.843 E48.06824
G1 X68.820 Y105.200 E49.10875
G1 X68.673 Y104.221 E49.38444
G1 X68.394 Y100.495 E50.42499
G1 X68.394 Y99.505 E50.70071
G1 X68.673 Y95.779 E51.74123
G1 X68.820 Y94.800 E52.01692
G1 X69.652 Y91.157 E53.05748
G1 X69.944 Y90.211 E53.33320
G1 X71.309 Y86.733 E54.37372
G1 X71.738 Y85.840 E54.64945
G1 X73.607 Y82.605 E55.68996
G1 X74.164 Y81.786 E55.96569
G1 X76.494 Y78.865 E57.00620
G1 X77.117 Y78.194 E57.26105
G1 E55.26105 F2400.00000
G92 E0
G1 X104.677 Y104.677 F7800.000
G1 E2.00000 F2400.00000
G1 F1800
G1 X103.307 Y105.728 E2.48078
G1 X101.712 Y106.388 E2.96156
G1 X100.000 Y106.614 E3.44234
G1 X98.288 Y106.388 E3.92312
G1 X96.693 Y105.728 E4.40390
G1 X95.323 Y104.677 E4.88467
G1 X94.272 Y103.307 E5.36545
G1 X93.612 Y101.712 E5.84623
G1 X93.386 Y100.000 E6.32701
G1 X93.612 Y98.288 E6.80779
G1 X94.262 Y96.718 E7.28120
G1 X95.321 Y95.326 E7.76813
G1 X96.693 Y94.272 E8.24992
G1 X98.288 Y93.612 E8.73070
G1 X99.974 Y93.390 E9.20411
G1 X101.708 Y93.610 E9.69103
G1 X103.307 Y94.272 E10.17282
G1 X104.677 Y95.323 E10.65360
G1 X105.728 Y96.693 E11.13438
G1 X106.388 Y98.288 E11.61516
G1 X106.614 Y100.000 E12.09594
G1 X106.388 Y101.712 E12.57672
G1 X105.728 Y103.307 E13.05750
G1 X104.722 Y104.617 E13.51739
G1 X104.231 Y104.231 F7800.000
G1 F1800
G1 X102.992 Y105.182 E13.95235
G1 X101.549 Y105.779 E14.38731
G1 X100.000 Y105.983 E14.82227
G1 X98.451 Y105.779 E15.25723
G1 X97.008 Y105.182 E15.69219
G1 X95.769 Y104.231 E16.12715
G1 X94.818 Y102.992 E16.56211
G1 X94.221 Y101.549 E16.99708
G1 X94.017 Y100.000 E17.43204
G1 X94.221 Y98.451 E17.86700
G1 X94.809 Y97.031 E18.29498
G1 X95.767 Y95.771 E18.73609
G1 X97.008 Y94.818 E19.17166
G1 X98.451 Y94.221 E19.60662
G1 X99.975 Y94.020 E20.03461
G1 X101.547 Y94.220 E20.47572
G1 X102.992 Y94.818 E20.91129
G1 X104.231 Y95.769 E21.34625
G1 X105.182 Y97.008 E21.78121
G1 X105.779 Y98.451 E22.21617
G1 X105.983 Y100.000 E22.65114
G1 X105.779 Y101.549 E23.08610
G1 X105.182 Y102.992 E23.52106
G1 X104.276 Y104.171 E23.93513
G1 X103.785 Y103.785 F7800.000
G1 F1800
G1 X102.677 Y104.636 E24.32427
G1 X101.385 Y105.171 E24.71341
G1 X100.000 Y105.353 E25.10256
G1 X98.615 Y105.171 E25.49170
G1 X97.323 Y104.636 E25.88084
G1 X96.215 Y103.785 E26.26998
G1 X95.364 Y102.677 E26.65912
G1 X94.829 Y101.385 E27.04826
G1 X94.647 Y100.000 E27.43741
G1 X94.829 Y98.615 E27.82655
G1 X95.355 Y97.345 E28.20911
G1 X96.214 Y96.215 E28.60440
G1 X97.323 Y95.364 E28.99376
G1 X98.615 Y94.829 E29.38290
G1 X99.977 Y94.650 E29.76546
G1 X101.385 Y94.829 E30.16075
G1 X102.677 Y95.364 E30.55011
G1 X103.785 Y96.215 E30.93926
G1 X104.636 Y97.323 E31.32840
G1 X105.171 Y98.615 E31.71754
G1 X105.353 Y100.000 E32.10668
G1 X105.171 Y101.385 E32.49582
G1 X104.636 Y102.677 E32.88496
G1 X103.831 Y103.726 E33.25322
G1 X103.785 Y103.785 F7800.000
G1 E31.25322 F2400.00000
G92 E0
G1 X116.015 Y116.966 F7800.000
G1 E2.00000 F2400.00000
G1 F1800
G1 X114.589 Y118.290 E2.54204
G1 X111.641 Y120.289 E3.53379
G1 X108.547 Y121.778 E4.48990
G1 X105.206 Y122.809 E5.46364
G1 X101.748 Y123.330 E6.43738
G1 X98.254 Y123.330 E7.41055
G1 X94.733 Y122.790 E8.40230
G1 X91.453 Y121.778 E9.35840
G1 X88.302 Y120.261 E10.33214
G1 X85.413 Y118.292 E11.30588
G1 X82.850 Y115.913 E12.27963
G1 X80.670 Y113.179 E13.25337
G1 X78.921 Y110.151 E14.22711
G1 X77.644 Y106.898 E15.20027
G1 X76.861 Y103.424 E16.19202
G1 X76.604 Y100.000 E17.14813
G1 X76.866 Y96.513 E18.12187
G1 X77.644 Y93.104 E19.09561
G1 X78.921 Y89.849 E20.06935
G1 X80.670 Y86.821 E21.04310
G1 X82.850 Y84.087 E22.01684
G1 X85.413 Y81.708 E22.99058
G1 X88.302 Y79.739 E23.96432
G1 X91.453 Y78.222 E24.93806
G1 X94.794 Y77.191 E25.91180
G1 X98.250 Y76.670 E26.88497
G1 X101.811 Y76.679 E27.87672
G1 X105.206 Y77.191 E28.83282
G1 X108.547 Y78.222 E29.80657
G1 X111.698 Y79.739 E30.78031
G1 X114.587 Y81.708 E31.75405
G1 X117.150 Y84.087 E32.72779
G1 X119.330 Y86.821 E33.70153
G1 X121.078 Y89.847 E34.67470
G1 X122.370 Y93.166 E35.66645
G1 X123.134 Y96.513 E36.62255
G1 X123.396 Y100.000 E37.59630
G1 X123.134 Y103.487 E38.57004
G1 X122.356 Y106.896 E39.54378
G1 X121.080 Y110.149 E40.51695
G1 X119.291 Y113.229 E41.50870
G1 X117.150 Y115.913 E42.46480
G1 X116.070 Y116.915 E42.87504
G1 X116.440 Y117.424 F7800.000
G1 F1800
G1 X114.979 Y118.781 E43.43035
G1 X111.953 Y120.832 E44.44818
G1 X108.776 Y122.362 E45.43014
G1 X105.345 Y123.420 E46.42997
G1 X101.795 Y123.955 E47.42979
G1 X98.206 Y123.955 E48.42926
G1 X94.593 Y123.401 E49.44709
G1 X91.224 Y122.362 E50.42905
G1 X87.989 Y120.804 E51.42888
G1 X85.022 Y118.781 E52.42870
G1 X82.390 Y116.339 E53.42852
G1 X80.152 Y113.532 E54.42834
G1 X78.357 Y110.423 E55.42816
G1 X77.045 Y107.082 E56.42764
G1 X76.241 Y103.516 E57.44547
G1 X75.978 Y100.000 E58.42743
G1 X76.246 Y96.420 E59.42725
G1 X77.045 Y92.919 E60.42708
G1 X78.357 Y89.577 E61.42690
G1 X80.152 Y86.468 E62.42672
G1 X82.390 Y83.661 E63.42654
G1 X85.022 Y81.219 E64.42637
G1 X87.989 Y79.196 E65.42619
G1 X91.224 Y77.638 E66.42601
G1 X94.655 Y76.580 E67.42583
G1 X98.204 Y76.045 E68.42530
G1 X101.859 Y76.054 E69.44314
G1 X105.345 Y76.580 E70.42510
G1 X108.776 Y77.638 E71.42492
G1 X112.011 Y79.196 E72.42474
G1 X114.978 Y81.219 E73.42457
G1 X117.610 Y83.661 E74.42439
G1 X119.848 Y86.468 E75.42421
G1 X121.643 Y89.576 E76.42368
G1 X122.969 Y92.982 E77.44151
G1 X123.754 Y96.420 E78.42348
G1 X124.022 Y100.000 E79.42330
G1 X123.754 Y103.580 E80.42312
G1 X122.955 Y107.081 E81.42294
G1 X121.644 Y110.422 E82.42242
G1 X119.808 Y113.582 E83.44025
G1 X117.610 Y116.339 E84.42221
G1 X116.495 Y117.373 E84.84549
G1 X116.865 Y117.882 F7800.000
G1 F1800
G1 X115.369 Y119.271 E85.41406
G1 X112.266 Y121.375 E86.45797
G1 X109.005 Y122.945 E87.46580
G1 X105.485 Y124.031 E88.49170
G1 X101.842 Y124.580 E89.51760
G1 X98.158 Y124.580 E90.54338
G1 X94.453 Y124.012 E91.58729
G1 X90.995 Y122.945 E92.59511
G1 X87.675 Y121.347 E93.62102
G1 X84.632 Y119.271 E94.64692
G1 X81.931 Y116.766 E95.67282
G1 X79.634 Y113.885 E96.69873
G1 X77.792 Y110.695 E97.72463
G1 X76.446 Y107.266 E98.75041
G1 X75.621 Y103.609 E99.79432
G1 X75.351 Y100.000 E100.80214
G1 X75.626 Y96.326 E101.82804
G1 X76.446 Y92.735 E102.85395
G1 X77.792 Y89.305 E103.87985
G1 X79.634 Y86.115 E104.90575
G1 X81.931 Y83.234 E105.93166
G1 X84.632 Y80.729 E106.95756
G1 X87.675 Y78.653 E107.98346
G1 X90.995 Y77.055 E109.00937
G1 X94.515 Y75.969 E110.03527
G1 X98.158 Y75.420 E111.06105
G1 X101.906 Y75.430 E112.10496
G1 X105.485 Y75.969 E113.11278
G1 X109.005 Y77.055 E114.13868
G1 X112.325 Y78.653 E115.16459
G1 X115.368 Y80.729 E116.19049
G1 X118.069 Y83.234 E117.21639
G1 X120.366 Y86.115 E118.24230
G1 X122.208 Y89.305 E119.26807
G1 X123.568 Y92.798 E120.31199
G1 X124.374 Y96.326 E121.31981
G1 X124.649 Y100.000 E122.34571
G1 X124.374 Y103.674 E123.37161
G1 X123.554 Y107.265 E124.39752
G1 X122.208 Y110.694 E125.42330
G1 X120.325 Y113.936 E126.46721
G1 X118.069 Y116.766 E127.47503
G1 X116.920 Y117.831 E127.91135
G1 X116.383 Y117.751 F7800.000
G1 E125.91135 F2400.00000
G92 E0
G1 X107.058 Y98.405 F7800.000
G1 E2.00000 F2400.00000
G1 F1800
G1 X106.969 Y98.048 E2.10254
G1 X106.766 Y97.456 E2.27662
G1 X106.513 Y96.885 E2.45070
G1 X106.226 Y96.363 E2.61655
G1 X106.197 Y96.315 F7800.000
G1 F1800
G1 X105.864 Y95.818 E2.78330
G1 X105.473 Y95.330 E2.95738
G1 X105.219 Y95.065 E3.05952
G1 E1.05952 F2400.00000
G92 E0
G1 X106.924 Y97.868 F7800.000
G1 E2.00000 F2400.00000
G1 F1800
G1 X107.120 Y98.654 E2.22578
G1 X107.218 Y99.272 E2.39986
G1 X107.262 Y99.895 E2.57394
G1 X107.253 Y100.520 E2.74802
G1 X107.190 Y101.142 E2.92210
G1 X107.074 Y101.757 E3.09618
G1 X106.905 Y102.359 E3.27026
G1 X106.686 Y102.944 E3.44433
G1 X106.418 Y103.509 E3.61841
G1 X106.102 Y104.048 E3.79249
G1 X105.741 Y104.559 E3.96657
G1 X105.339 Y105.037 E4.14065
G1 X104.897 Y105.479 E4.31472
G1 X104.419 Y105.882 E4.48880
G1 X103.908 Y106.242 E4.66288
G1 X103.369 Y106.559 E4.83696
G1 X102.805 Y106.828 E5.01103
G1 X102.220 Y107.049 E5.18511
G1 X101.619 Y107.219 E5.35919
G1 X101.005 Y107.339 E5.53326
G1 X100.383 Y107.405 E5.70734
G1 X99.758 Y107.420 E5.88142
G1 X99.135 Y107.382 E6.05549
G1 X98.516 Y107.291 E6.22957
G1 X97.907 Y107.149 E6.40365
G1 X97.313 Y106.956 E6.57772
G1 X96.736 Y106.714 E6.75180
G1 X96.182 Y106.425 E6.92587
G1 X95.654 Y106.091 E7.09995
G1 X95.156 Y105.713 E7.27402
G1 X94.691 Y105.295 E7.44810
G1 X94.262 Y104.840 E7.62217
G1 X93.873 Y104.351 E7.79625
G1 X93.525 Y103.832 E7.97032
G1 X93.222 Y103.285 E8.14440
G1 X92.966 Y102.715 E8.31847
G1 X92.757 Y102.126 E8.49255
G1 X92.598 Y101.521 E8.66662
G1 X92.490 Y100.905 E8.84070
G1 X92.432 Y100.283 E9.01477
G1 X92.426 Y99.658 E9.18884
G1 X92.472 Y99.034 E9.36292
G1 X92.569 Y98.417 E9.53699
G1 X92.716 Y97.809 E9.71106
G1 X92.913 Y97.216 E9.88514
G1 X93.158 Y96.641 E10.05921
G1 X93.449 Y96.088 E10.23328
G1 X93.784 Y95.560 E10.40736
G1 X94.162 Y95.062 E10.58143
G1 X94.579 Y94.596 E10.75550
G1 X95.032 Y94.166 E10.92957
G1 X95.519 Y93.774 E11.10365
G1 X96.036 Y93.423 E11.27772
G1 X96.580 Y93.115 E11.45179
G1 X97.148 Y92.853 E11.62586
G1 X97.735 Y92.637 E11.79994
G1 X98.337 Y92.470 E11.97401
G1 X98.951 Y92.352 E12.14808
G1 X99.572 Y92.284 E12.32215
G1 X100.197 Y92.267 E12.49622
G1 X100.821 Y92.300 E12.67029
G1 X101.441 Y92.383 E12.84437
G1 X102.052 Y92.517 E13.01844
G1 X102.650 Y92.698 E13.19251
G1 X103.231 Y92.928 E13.36658
G1 X103.792 Y93.203 E13.54065
G1 X104.330 Y93.522 E13.71472
G1 X104.840 Y93.884 E13.88879
G1 X105.319 Y94.285 E14.06286
G1 X105.765 Y94.723 E14.23693
G1 X106.174 Y95.195 E14.41100
G1 X106.545 Y95.699 E14.58507
G1 X106.874 Y96.230 E14.75914
G1 X107.159 Y96.787 E14.93321
G1 X107.400 Y97.364 E15.10728
G1 X107.593 Y97.958 E15.28135
G1 X107.739 Y98.566 E15.45542
G1 X107.836 Y99.183 E15.62949
G1 X107.884 Y99.806 E15.80356
G1 X107.883 Y100.431 E15.97763
G1 X107.832 Y101.054 E16.15170
G1 X107.732 Y101.671 E16.32577
G1 X107.583 Y102.279 E16.49983
G1 X107.387 Y102.872 E16.67390
G1 X107.145 Y103.449 E16.84797
G1 X106.859 Y104.004 E17.02204
G1 X106.529 Y104.535 E17.19611
G1 X106.159 Y105.039 E17.37018
G1 X105.750 Y105.512 E17.54425
G1 X105.306 Y105.951 E17.71831
G1 X104.828 Y106.355 E17.89238
G1 X104.321 Y106.719 E18.06645
G1 X103.786 Y107.043 E18.24052
G1 X103.228 Y107.325 E18.41459
G1 X102.649 Y107.561 E18.58865
G1 X102.054 Y107.752 E18.76272
G1 X101.446 Y107.896 E18.93679
G1 X100.828 Y107.992 E19.11085
G1 X100.205 Y108.040 E19.28492
G1 X99.580 Y108.040 E19.45899
G1 X98.957 Y107.991 E19.63306
G1 X98.339 Y107.893 E19.80712
G1 X97.731 Y107.748 E19.98119
G1 X97.136 Y107.557 E20.15526
G1 X96.558 Y107.320 E20.32932
G1 X95.999 Y107.039 E20.50339
G1 X95.464 Y106.716 E20.67746
G1 X94.955 Y106.353 E20.85152
G1 X94.476 Y105.951 E21.02559
G1 X94.029 Y105.514 E21.19965
G1 X93.617 Y105.044 E21.37372
G1 X93.243 Y104.544 E21.54779
G1 X92.908 Y104.016 E21.72185
G1 X92.614 Y103.464 E21.89592
G1 X92.363 Y102.892 E22.06998
G1 X92.157 Y102.302 E22.24405
G1 X91.997 Y101.697 E22.41811
G1 X91.883 Y101.083 E22.59218
G1 X91.817 Y100.461 E22.76624
G1 X91.798 Y99.836 E22.94031
G1 X91.827 Y99.212 E23.11437
G1 X91.903 Y98.592 E23.28844
G1 X92.026 Y97.979 E23.46250
G1 X92.195 Y97.377 E23.63657
G1 X92.409 Y96.790 E23.81063
G1 X92.668 Y96.221 E23.98470
G1 X92.968 Y95.673 E24.15876
G1 X93.310 Y95.149 E24.33283
G1 X93.689 Y94.653 E24.50689
G1 X94.106 Y94.186 E24.68096
G1 X94.556 Y93.753 E24.85502
G1 X95.038 Y93.354 E25.02908
G1 X95.548 Y92.993 E25.20315
G1 X96.084 Y92.672 E25.37721
G1 X96.643 Y92.391 E25.55127
G1 X97.221 Y92.154 E25.72534
G1 X97.815 Y91.960 E25.89940
G1 X98.422 Y91.812 E26.07347
G1 X99.039 Y91.709 E26.24753
G1 X99.661 Y91.653 E26.42159
G1 X100.286 Y91.644 E26.59566
G1 X100.910 Y91.681 E26.76972
G1 X101.530 Y91.765 E26.94378
G1 X102.141 Y91.894 E27.11784
G1 X102.741 Y92.069 E27.29191
G1 X103.327 Y92.289 E27.46597
G1 X103.894 Y92.551 E27.64003
G1 X104.441 Y92.854 E27.81410
G1 X104.963 Y93.197 E27.98816
G1 X105.458 Y93.578 E28.16222
G1 X105.924 Y93.995 E28.33628
G1 X106.358 Y94.445 E28.51035
G1 X106.757 Y94.926 E28.68441
G1 X107.120 Y95.435 E28.85847
G1 X107.444 Y95.970 E29.03253
G1 X107.727 Y96.527 E29.20659
G1 X107.969 Y97.103 E29.38065
G1 X108.168 Y97.696 E29.55472
G1 X108.323 Y98.302 E29.72878
G1 X108.432 Y98.917 E29.90284
G1 X108.496 Y99.539 E30.07690
G1 X108.514 Y100.164 E30.25096
G1 X108.487 Y100.788 E30.42502
G1 X108.413 Y101.409 E30.59909
G1 X108.295 Y102.022 E30.77315
G1 X108.132 Y102.626 E30.94721
G1 X107.925 Y103.216 E31.12127
G1 X107.676 Y103.789 E31.29533
G1 X107.385 Y104.342 E31.46939
G1 X107.055 Y104.873 E31.64345
G1 X106.687 Y105.378 E31.81751
G1 X106.283 Y105.855 E31.99157
G1 X105.846 Y106.302 E32.16563
G1 X105.377 Y106.716 E32.33969
G1 X104.880 Y107.094 E32.51375
G1 X104.356 Y107.436 E32.68781
G1 X103.809 Y107.738 E32.86187
G1 X103.242 Y108.000 E33.03593
G1 X102.657 Y108.221 E33.20999
